public/images/hashed/65f15c824f5ed9ccb0c04e0c53432041.svg

<?xml version="1.0" encoding="UTF-8"?>
<svg width="80px" height="80px" viewBox="0 0 80 80" version="1.1" xmlns="http://www.w3.org/2000/svg" xmlns:xlink="http://www.w3.org/1999/xlink">
    <!-- Generator: Sketch 64 (93537) - https://sketch.com -->
    <title>Icon-Architecture/64/Arch_AWS-Device-Farm_64</title>
    <desc>Created with Sketch.</desc>
    <defs>
        <linearGradient x1="0%" y1="100%" x2="100%" y2="0%" id="linearGradient-1">
            <stop stop-color="#BD0816" offset="0%"></stop>
            <stop stop-color="#FF5252" offset="100%"></stop>
        </linearGradient>
    </defs>
    <g id="Icon-Architecture/64/Arch_AWS-Device-Farm_64" stroke="none" stroke-width="1" fill="none" fill-rule="evenodd">
        <g id="Icon-Architecture-BG/64/Mobile" fill="url(#linearGradient-1)">
            <rect id="Rectangle" x="0" y="0" width="80" height="80"></rect>
        </g>
        <path d="M49.214,51.3947776 L50.224,53.1208007 L46.116,55.5248329 L45.107,53.7998098 L49.214,51.3947776 Z M30.37,51.3617772 L34.515,53.7028085 L33.53,55.4438318 L29.386,53.1028005 L30.37,51.3617772 Z M49.214,28.1494663 L45.107,25.7444341 L46.116,24.019411 L50.224,26.4234432 L49.214,28.1494663 Z M30.37,28.1824667 L29.386,26.4404434 L33.53,24.1004121 L34.515,25.8414354 L30.37,28.1824667 Z M55,41.9506511 L57,41.9506511 L57,38.0005982 L55,38.0005982 L55,41.9506511 Z M23,41.9506511 L25,41.9506511 L25,38.0005982 L23,38.0005982 L23,41.9506511 Z M62,52.9277981 L40.029,65.8409711 L18,52.9277981 L18,27.0724519 L40.029,14.1592789 L62,27.0724519 L62,52.9277981 Z M63.507,25.6374326 L40.537,12.1372518 C40.225,11.9542494 39.837,11.9542494 39.525,12.1372518 L16.494,25.6374326 C16.189,25.816435 16,26.1444394 16,26.4994442 L16,53.4998058 C16,53.8548106 16.189,54.183815 16.494,54.3628174 L39.525,67.8629982 C39.681,67.9549994 39.856,68 40.03,68 C40.205,68 40.381,67.9549994 40.537,67.8629982 L63.507,54.3628174 C63.813,54.1828149 64,53.8548106 64,53.4998058 L64,26.4994442 C64,26.1454394 63.813,25.8174351 63.507,25.6374326 L63.507,25.6374326 Z M24.213,50.8127698 C23.169,50.8127698 22.319,49.9637584 22.319,48.9207445 C22.319,47.8767305 23.169,47.0277191 24.213,47.0277191 C25.257,47.0277191 26.106,47.8767305 26.106,48.9207445 C26.106,49.9637584 25.257,50.8127698 24.213,50.8127698 L24.213,50.8127698 Z M24.213,45.0276923 C22.067,45.0276923 20.319,46.7737157 20.319,48.9207445 C20.319,51.0667732 22.067,52.8127966 24.213,52.8127966 C26.36,52.8127966 28.106,51.0667732 28.106,48.9207445 C28.106,46.7737157 26.36,45.0276923 24.213,45.0276923 L24.213,45.0276923 Z M55.624,50.8127698 C54.58,50.8127698 53.732,49.9637584 53.732,48.9207445 C53.732,47.8767305 54.58,47.0277191 55.624,47.0277191 C56.668,47.0277191 57.518,47.8767305 57.518,48.9207445 C57.518,49.9637584 56.668,50.8127698 55.624,50.8127698 L55.624,50.8127698 Z M55.624,45.0276923 C53.478,45.0276923 51.732,46.7737157 51.732,48.9207445 C51.732,51.0667732 53.478,52.8127966 55.624,52.8127966 C57.771,52.8127966 59.518,51.0667732 59.518,48.9207445 C59.518,46.7737157 57.771,45.0276923 55.624,45.0276923 L55.624,45.0276923 Z M41.812,21.7153801 C41.812,22.7583941 40.963,23.6074055 39.919,23.6074055 C38.875,23.6074055 38.026,22.7583941 38.026,21.7153801 C38.026,20.6713661 38.875,19.8223548 39.919,19.8223548 C40.963,19.8223548 41.812,20.6713661 41.812,21.7153801 L41.812,21.7153801 Z M36.026,21.7153801 C36.026,23.8614089 37.773,25.6074322 39.919,25.6074322 C42.066,25.6074322 43.812,23.8614089 43.812,21.7153801 C43.812,19.5683514 42.066,17.822328 39.919,17.822328 C37.773,17.822328 36.026,19.5683514 36.026,21.7153801 L36.026,21.7153801 Z M55.624,28.8914762 C56.668,28.8914762 57.518,29.7404876 57.518,30.7845016 C57.518,31.8285156 56.668,32.6775269 55.624,32.6775269 C54.58,32.6775269 53.732,31.8285156 53.732,30.7845016 C53.732,29.7404876 54.58,28.8914762 55.624,28.8914762 L55.624,28.8914762 Z M39.919,41.7796488 C38.875,41.7796488 38.026,40.9306375 38.026,39.8866235 C38.026,38.8436095 38.875,37.9945981 39.919,37.9945981 C40.963,37.9945981 41.812,38.8436095 41.812,39.8866235 C41.812,40.9306375 40.963,41.7796488 39.919,41.7796488 L39.919,41.7796488 Z M41.812,57.9868659 C41.812,59.0308799 40.963,59.8798912 39.919,59.8798912 C38.875,59.8798912 38.026,59.0308799 38.026,57.9868659 C38.026,56.9428519 38.875,56.0938405 39.919,56.0938405 C40.963,56.0938405 41.812,56.9428519 41.812,57.9868659 L41.812,57.9868659 Z M24.213,32.6775269 C23.169,32.6775269 22.319,31.8285156 22.319,30.7845016 C22.319,29.7404876 23.169,28.8914762 24.213,28.8914762 C25.257,28.8914762 26.106,29.7404876 26.106,30.7845016 C26.106,31.8285156 25.257,32.6775269 24.213,32.6775269 L24.213,32.6775269 Z M42.526,37.015585 C41.834,36.3875766 40.925,35.9945714 39.919,35.9945714 C38.861,35.9945714 37.902,36.4205771 37.2,37.1085863 L27.969,31.7525145 C28.049,31.4405104 28.106,31.1205061 28.106,30.7845016 C28.106,28.6384728 26.36,26.8914494 24.213,26.8914494 C22.067,26.8914494 20.319,28.6384728 20.319,30.7845016 C20.319,32.9315303 22.067,34.6775537 24.213,34.6775537 C25.304,34.6775537 26.287,34.2235476 26.994,33.4985379 L36.189,38.8326094 C36.093,39.1706139 36.026,39.5196186 36.026,39.8866235 C36.026,41.7266481 37.313,43.2636687 39.03,43.6676741 L39.03,54.2058153 C37.313,54.6098207 36.026,56.1468413 36.026,57.9868659 C36.026,60.1328946 37.773,61.879918 39.919,61.879918 C42.066,61.879918 43.812,60.1328946 43.812,57.9868659 C43.812,56.2288424 42.633,54.7568226 41.03,54.2748162 L41.03,43.5986732 C42.633,43.1166667 43.812,41.644647 43.812,39.8866235 C43.812,39.4706179 43.729,39.0776126 43.608,38.7016076 L52.763,33.4025366 C53.475,34.1805471 54.488,34.6775537 55.624,34.6775537 C57.771,34.6775537 59.518,32.9315303 59.518,30.7845016 C59.518,28.6384728 57.771,26.8914494 55.624,26.8914494 C53.478,26.8914494 51.732,28.6384728 51.732,30.7845016 C51.732,31.0755055 51.77,31.3575093 51.83,31.6305129 L42.526,37.015585 Z" id="AWS-Device-Farm_Icon_64_Squid" fill="#FFFFFF"></path>
    </g>
</svg>

<svg xmlns="http://www.w3.org/2000/svg" width="80" height="80"><defs><linearGradient id="a" x1="0%" x2="100%" y1="100%" y2="0%"><stop offset="0%" stop-color="#BD0816"/><stop offset="100%" stop-color="#FF5252"/></linearGradient></defs><g fill="none" fill-rule="evenodd"><path fill="url(#a)" d="M0 0h80v80H0z"/><path fill="#FFF" d="m49.214 51.395 1.01 1.726-4.108 2.404-1.009-1.725 4.107-2.405Zm-18.844-.033 4.145 2.34-.985 1.742-4.144-2.341.984-1.741Zm18.844-23.213-4.107-2.405 1.009-1.725 4.108 2.404-1.01 1.726Zm-18.844.033-.984-1.742 4.144-2.34.985 1.741-4.145 2.341ZM55 41.951h2V38h-2v3.95Zm-32 0h2V38h-2v3.95Zm39 10.977L40.029 65.84 18 52.928V27.072L40.029 14.16 62 27.072v25.856Zm1.507-27.29-22.97-13.5a1.001 1.001 0 0 0-1.012 0l-23.031 13.5a1 1 0 0 0-.494.861v27c0 .356.189.685.494.864l23.031 13.5a.998.998 0 0 0 1.012 0l22.97-13.5A1 1 0 0 0 64 53.5v-27a1 1 0 0 0-.493-.863ZM24.213 50.812a1.896 1.896 0 0 1-1.894-1.892c0-1.044.85-1.893 1.894-1.893s1.893.849 1.893 1.893a1.895 1.895 0 0 1-1.893 1.892Zm0-5.785a3.898 3.898 0 0 0-3.894 3.893 3.898 3.898 0 0 0 3.894 3.892 3.897 3.897 0 0 0 3.893-3.892 3.897 3.897 0 0 0-3.893-3.893Zm31.411 5.785a1.894 1.894 0 0 1-1.892-1.892 1.894 1.894 0 0 1 3.786 0c0 1.043-.85 1.892-1.894 1.892Zm0-5.785a3.897 3.897 0 0 0-3.892 3.893 3.897 3.897 0 0 0 3.892 3.892 3.898 3.898 0 0 0 3.894-3.892 3.898 3.898 0 0 0-3.894-3.893ZM41.812 21.715a1.895 1.895 0 0 1-1.893 1.892 1.895 1.895 0 0 1-1.893-1.892c0-1.044.849-1.893 1.893-1.893s1.893.85 1.893 1.893Zm-5.786 0a3.897 3.897 0 0 0 3.893 3.892 3.897 3.897 0 0 0 3.893-3.892 3.897 3.897 0 0 0-3.893-3.893 3.898 3.898 0 0 0-3.893 3.893Zm19.598 7.176c1.044 0 1.894.85 1.894 1.894s-.85 1.893-1.894 1.893a1.894 1.894 0 0 1 0-3.787ZM39.919 41.78a1.895 1.895 0 0 1-1.893-1.893c0-1.043.849-1.892 1.893-1.892s1.893.849 1.893 1.892a1.895 1.895 0 0 1-1.893 1.893Zm1.893 16.207a1.895 1.895 0 0 1-1.893 1.893 1.895 1.895 0 0 1-1.893-1.893c0-1.044.849-1.893 1.893-1.893s1.893.849 1.893 1.893Zm-17.599-25.31a1.896 1.896 0 0 1-1.894-1.892c0-1.045.85-1.894 1.894-1.894s1.893.85 1.893 1.894a1.895 1.895 0 0 1-1.893 1.893Zm18.313 4.339a3.867 3.867 0 0 0-2.607-1.021 3.873 3.873 0 0 0-2.719 1.114l-9.231-5.356c.08-.312.137-.632.137-.968a3.898 3.898 0 0 0-3.893-3.894 3.9 3.9 0 0 0-3.894 3.894 3.898 3.898 0 0 0 3.894 3.893 3.873 3.873 0 0 0 2.781-1.18l9.195 5.335a3.837 3.837 0 0 0-.163 1.054 3.893 3.893 0 0 0 3.004 3.78v10.539a3.893 3.893 0 0 0-3.004 3.78 3.898 3.898 0 0 0 3.893 3.894 3.898 3.898 0 0 0 3.893-3.893c0-1.758-1.179-3.23-2.782-3.712V43.599c1.603-.482 2.782-1.954 2.782-3.712 0-.416-.083-.81-.204-1.185l9.155-5.3a3.867 3.867 0 0 0 2.861 1.276 3.898 3.898 0 0 0 3.894-3.893 3.898 3.898 0 0 0-3.894-3.894 3.897 3.897 0 0 0-3.892 3.894c0 .29.038.573.098.846l-9.304 5.385Z"/></g></svg>
